!!!COM: Palestrina, Giovanni Perluigi da
!!!OPR: Veni creator Spiritus
!!!OTL: Agnus I
**kern	**kern	**kern	**kern	**kern	**kern
*Ibass	*Itenor	*Itenor	*Icalto	*Icant	*Icant
!Bassus	!Tenor 2	!Tenor 1	!Altus	!Cantus 2	!Cantus 1
*clefF4	*clefGv2	*clefGv2	*clefG2	*clefG2	*clefG2
*k[]	*k[]	*k[]	*k[]	*k[]	*k[]
*G:mix	*G:mix	*G:mix	*G:mix	*G:mix	*G:mix
*M4/2	*M4/2	*M4/2	*M4/2	*M4/2	*M4/2
=1	=1	=1	=1	=1	=1
0r	0r	1r	1d	0r	0r
.	.	1G	2.g	.	.
.	.	.	4f	.	.
=2	=2	=2	=2	=2	=2
0r	0r	2.c	2.e	0r	0g
.	.	4d	4d	.	.
.	.	2e	2c	.	.
.	.	[2c	[2e	.	.
=3	=3	=3	=3	=3	=3
0r	0r	4c]	4e]	0r	0a
.	.	4A	4c	.	.
.	.	2d	2f	.	.
.	.	2c#	2e	.	.
.	.	2d	2f	.	.
=4	=4	=4	=4	=4	=4
0r	0r	2B	2d	0r	0g
.	.	1c	1e	.	.
.	.	2B	2d	.	.
=5	=5	=5	=5	=5	=5
0D	0r	0A	1d	0dd	0f#
.	.	.	2r	.	.
.	.	.	[2d	.	.
=6	=6	=6	=6	=6	=6
2.G	0r	1G	2d]	2.b	0g
.	.	.	2.g	.	.
4A	.	.	.	4cc	.
2B	.	1r	.	2dd	.
.	.	.	4f	.	.
[2c	.	.	4e	[2ee	.
.	.	.	4d	.	.
=7	=7	=7	=7	=7	=7
4c]	0r	0r	2e	4ee]	0a
4A	.	.	.	4cc	.
2d	.	.	2d	2ff	.
2c	.	.	2A	2ee	.
2d	.	.	2d	2ff	.
=8	=8	=8	=8	=8	=8
2B	0r	2r	2G	2.gg	0g
1c	.	2e	4c	.	.
.	.	.	4d	4ff	.
.	.	2c	4e	2ee	.
.	.	.	4f	.	.
2B	.	2d	2g	2dd	.
=9	=9	=9	=9	=9	=9
4A	0r	2e	1.a	4cc	0cc
4G	.	.	.	4b	.
4F	.	1f	.	4a	.
4G	.	.	.	4b	.
4A	.	.	.	4cc	.
4B	.	.	.	4dd	.
[2c	.	2e	2g	4ee	.
.	.	.	.	4ff	.
=10	=10	=10	=10	=10	=10
2c]	0G	1d	1g	0gg	0dd
4B	.	.	.	.	.
4A	.	.	.	.	.
1B	.	2r	1d	.	.
.	.	[2g	.	.	.
=11	=11	=11	=11	=11	=11
1c	2.c	4g]	2.e	2r	0cc
.	.	4f	.	.	.
.	.	4e	.	1ee	.
.	4d	4d	4f	.	.
1r	2e	2c	2g	.	.
.	[2f	2F	[2a	2cc	.
=12	=12	=12	=12	=12	=12
0r	4f]	2r	4a]	0dd	0r
.	4d	.	4f	.	.
.	2g	2G	2b-	.	.
.	2f	2d	2a	.	.
.	[2g	2G	2b-	.	.
=13	=13	=13	=13	=13	=13
0r	4g]	2.A	1a	0cc	0r
.	4f	.	.	.	.
.	1f	.	.	.	.
.	.	4B	.	.	.
.	.	1c	1g	.	.
.	2e	.	.	.	.
=14	=14	=14	=14	=14	=14
2r	2f	2.F	2.a	1r	0cc
2A	1c	.	.	.	.
.	.	4G	8g	.	.
.	.	.	8f	.	.
1c	.	1A	1e	1ee	.
.	2e	.	.	.	.
=15	=15	=15	=15	=15	=15
2c	2e	0r	0r	0gg	0g
4B	4d	.	.	.	.
4A	4c	.	.	.	.
2B	2d	.	.	.	.
2c	2e	.	.	.	.
=16	=16	=16	=16	=16	=16
2F	2.f	2r	2r	0ff	0a
2D	.	2d	1f	.	.
.	4g	.	.	.	.
1d	2a	1f	.	.	.
.	2d	.	2a	.	.
=17	=17	=17	=17	=17	=17
1c	0r	2f	2a	0r	0cc
.	.	4e	4g	.	.
.	.	4d	4f	.	.
1r	.	2e	2g	.	.
.	.	2f	2a	.	.
=18	=18	=18	=18	=18	=18
0r	2r	2B-	2b-	2r	0dd
.	2d	2B-	2b-	1f	.
.	1f	2.d	2a	.	.
.	.	.	2d	2a	.
.	.	4c	.	.	.
=19	=19	=19	=19	=19	=19
0r	2f	4A	1r	2a	0cc
.	.	4B	.	.	.
.	4e	1c	.	4g	.
.	4d	.	.	4f	.
.	2e	.	2r	2g	.
.	2f	2F	2f	2a	.
=20	=20	=20	=20	=20	=20
0r	2B-	2r	2f	1b-	0dd
.	2B-	1f	2d	.	.
.	1d	.	1f	1a	.
.	.	2a	.	.	.
=21	=21	=21	=21	=21	=21
0r	0c	2a	2.e	0cc	0ee
.	.	4g	.	.	.
.	.	4f	4d	.	.
.	.	2g	4e	.	.
.	.	.	4f	.	.
.	.	2c	4g	.	.
.	.	.	4e	.	.
=22	=22	=22	=22	=22	=22
0r	2r	2d	4f	2.a	0dd
.	.	.	4g	.	.
.	2d	2f	1a	.	.
.	.	.	.	4g	.
.	1f	1d	.	4f	.
.	.	.	.	4g	.
.	.	.	2f	4a	.
.	.	.	.	4b	.
=23	=23	=23	=23	=23	=23
1A	2f	1c	1a	2cc	0r
.	4e	.	.	1cc	.
.	4d	.	.	.	.
1c	2.e	1r	[1g	.	.
.	.	.	.	2ee	.
.	4d	.	.	.	.
=24	=24	=24	=24	=24	=24
2c	2c	0r	0g]	2ee	0r
4B	2d	.	.	4dd	.
4A	.	.	.	4cc	.
2B	2G	.	.	2dd	.
2c	2g	.	.	2ee	.
=25	=25	=25	=25	=25	=25
2F	1f	0r	2r	1ff	0cc
2F	.	.	1a	.	.
1A	1c	.	.	1ee	.
.	.	.	2cc	.	.
=26	=26	=26	=26	=26	=26
0G	1r	2r	2cc	1gg	0dd
.	.	1g	4b	.	.
.	.	.	4a	.	.
.	[1g	.	2b	2dd	.
.	.	2G	2b	[2gg	.
=27	=27	=27	=27	=27	=27
2r	2g]	2c	2cc	4gg]	0ee
.	.	.	.	4ff	.
1c	2c	2.e	2cc	4ee	.
.	.	.	.	4dd	.
.	2e	.	1g	2cc	.
.	.	4f	.	.	.
2G	[2e	2g	.	2b	.
=28	=28	=28	=28	=28	=28
2A	4e]	1e	1c	2a	0cc
.	4f#	.	.	.	.
2E	2g	.	.	1g	.
1A	2e	1c	1r	.	.
.	4d	.	.	2f#	.
.	4c	.	.	.	.
=29	=29	=29	=29	=29	=29
0G	1e	1r	2r	1g	0b
.	.	.	1g	.	.
.	1d	2r	.	1dd	.
.	.	[2d	2d	.	.
=30	=30	=30	=30	=30	=30
0r	0r	2d]	2f	2dd	0a
.	.	2A	2e	2cc	.
.	.	2f	2d	2dd	.
.	.	2e	[2c	2ee	.
=31	=31	=31	=31	=31	=31
1.G	1r	2.d	2c]	1gg	0dd
.	.	.	4B	.	.
.	.	8e	4A	.	.
.	.	8f	.	.	.
.	1d	2g	2B	1r	.
2D	.	[2f	2A	.	.
=32	=32	=32	=32	=32	=32
2F	2A	4f]	2a	0r	0cc
.	.	4c	.	.	.
2E	1c	1e	2.g	.	.
1A	.	.	.	.	.
.	.	.	8f#	.	.
.	.	.	8e	.	.
.	2A	4d	2f#	.	.
.	.	4c	.	.	.
=33	=33	=33	=33	=33	=33
0G	4B	0d	0g	2r	0b
.	4A	.	.	.	.
.	4G	.	.	1gg	.
.	4A	.	.	.	.
.	4B	.	.	.	.
.	4c	.	.	.	.
.	2d	.	.	2dd	.
=34	=34	=34	=34	=34	=34
2.F	2.A	2r	1r	1ff	0cc
.	.	1a	.	.	.
4G	4B	.	.	.	.
1A	1c	.	2r	1ee	.
.	.	2e	[2a	.	.
=35	=35	=35	=35	=35	=35
1r	0r	2f	2a]	2dd	0r
.	.	2c	2e	1cc	.
2r	.	1d	2f	.	.
[2G	.	.	[2g	4b	.
.	.	.	.	4a	.
=36	=36	=36	=36	=36	=36
2G]	2r	1d	2g]	2b	0r
2D	1d	.	2.f	2.a	.
1F	.	1r	.	.	.
.	.	.	4g	4b	.
.	2A	.	[2a	4cc	.
.	.	.	.	4dd	.
=37	=37	=37	=37	=37	=37
1E	2c	0r	4a]	2.ee	0r
.	.	.	4g	.	.
.	2B	.	2.g	.	.
.	.	.	.	4dd	.
1A	2.c	.	.	1cc	.
.	.	.	8f#	.	.
.	.	.	8e	.	.
.	.	.	2f#	.	.
.	4d	.	.	.	.
=38	=38	=38	=38	=38	=38
0G	2e	2r	0g	2r	0b
.	4d	1g	.	2dd	.
.	4c	.	.	.	.
.	1d	.	.	2g	.
.	.	2d	.	2b	.
=39	=39	=39	=39	=39	=39
2.A	1e	2f	0r	2a	0cc
.	.	2e	.	2ee	.
4G	.	.	.	.	.
2F	1r	2a	.	2ff	.
2C	.	[2g	.	2ee	.
=40	=40	=40	=40	=40	=40
0D	2r	2g]	0r	2.dd	0a
.	1d	4f	.	.	.
.	.	4e	.	4cc	.
.	.	2f	.	4dd	.
.	.	.	.	4ee	.
.	2A	2d	.	2ff	.
=41	=41	=41	=41	=41	=41
0r	2c	0r	1r	2ee	0g
.	2B	.	.	2.dd	.
.	1e	.	1g	.	.
.	.	.	.	8cc#	.
.	.	.	.	8b	.
.	.	.	.	2cc#	.
=42	=42	=42	=42	=42	=42
1r	1d	2r	1a	2.dd	0f
.	.	1d	.	.	.
.	.	.	.	8cc	.
.	.	.	.	8b	.
[1D	2r	.	[1d	1a	.
.	[2a	2A	.	.	.
=43	=43	=43	=43	=43	=43
2D]	2a]	2d	2d]	2r	0a
2AA	2a	2c	2e	2ee	.
2D	2f	1d	2f	2dd	.
2D	2f	.	2d	[2ff	.
=44	=44	=44	=44	=44	=44
0C	1g	1G	2r	2ff]	0cc
.	.	.	1g	2ee	.
.	1c	2r	.	1ee	.
.	.	[2g	2G	.	.
=45	=45	=45	=45	=45	=45
1G	1d	2g]	2.B	2dd	0b
.	.	2G	.	1gg	.
.	.	.	4c	.	.
1G	2r	2.B	2d	.	.
.	[2d	.	2G	2dd	.
.	.	4c	.	.	.
=46	=46	=46	=46	=46	=46
2D	2d]	2d	1A	2ff	0a
2A	2A	2c	.	1ee	.
1D	1f	1d	2A	.	.
.	.	.	4d	[2dd	.
.	.	.	4c	.	.
=47	=47	=47	=47	=47	=47
2.E	1e	[0G	4B	4dd]	[0g
.	.	.	4G	4cc	.
.	.	.	2.g	2.cc	.
4F	.	.	.	.	.
1G	1d	.	.	.	.
.	.	.	4f	8b	.
.	.	.	.	8a	.
.	.	.	2d	2b	.
=48	=48	=48	=48	=48	=48
0C	0c	0G]	0e	0cc	0g]
==	==	==	==	==	==
*-	*-	*-	*-	*-	*-
!!!CDT: 1525/^1526/-1594/2/2
!!!OCY: Italia
!!!AGN: Mass (Tenor)
!!!AST: renaissance, vocal
!!!ASW: Hymn
!!!PWK: Masses, Book 9
!!!RNB: Cadence finals: C,D
!!!YOR: Le Opere Complete, v. 25, p. 246
!!!YOO: Rome, Italy: Fratelli Scalera
!!!END: 1992//
!!!EED: John Miller
!!!YEC: Copyright 2000, John Miller
!!!YEN: United States of America
!!!YEM: Rights to all derivative electronic formats reserved.
!!!YEM: Refer to licensing agreement for further details.
!!!YEM: This file must be accompanied by the licensing agreement.
!!!YEM: A copy of the licensing agreement may be found at http://www.music-cog.ohio-state.edu/HumdrumDatabases/Palestrina/license.txt
!!!EMD: converted to Humdrum by Bret Aarden
